Numix/64/actions/edit-clear-locationbar-rtl.svg

<?xml version="1.0" encoding="UTF-8" standalone="no"?>
<svg
   xmlns:dc="http://purl.org/dc/elements/1.1/"
   xmlns:cc="http://creativecommons.org/ns#"
   xmlns:rdf="http://www.w3.org/1999/02/22-rdf-syntax-ns#"
   xmlns:svg="http://www.w3.org/2000/svg"
   xmlns="http://www.w3.org/2000/svg"
   xmlns:sodipodi="http://sodipodi.sourceforge.net/DTD/sodipodi-0.dtd"
   xmlns:inkscape="http://www.inkscape.org/namespaces/inkscape"
   viewBox="0 0 64 64"
   id="svg2"
   version="1.1"
   inkscape:version="0.91 r"
   sodipodi:docname="edit-clear-locationbar-rtl.svg"
   width="64"
   height="64">
  <metadata
     id="metadata12">
    <rdf:RDF>
      <cc:Work
         rdf:about="">
        <dc:format>image/svg+xml</dc:format>
        <dc:type
           rdf:resource="http://purl.org/dc/dcmitype/StillImage" />
        <dc:title></dc:title>
      </cc:Work>
    </rdf:RDF>
  </metadata>
  <defs
     id="defs10" />
  <sodipodi:namedview
     pagecolor="#ffffff"
     bordercolor="#666666"
     borderopacity="1"
     objecttolerance="10"
     gridtolerance="10"
     guidetolerance="10"
     inkscape:pageopacity="0"
     inkscape:pageshadow="2"
     inkscape:window-width="1920"
     inkscape:window-height="1056"
     id="namedview8"
     showgrid="true"
     inkscape:zoom="7.56"
     inkscape:cx="-3.6600096"
     inkscape:cy="17.752329"
     inkscape:window-x="0"
     inkscape:window-y="24"
     inkscape:window-maximized="1"
     inkscape:current-layer="svg2">
    <inkscape:grid
       type="xygrid"
       id="grid4136" />
  </sodipodi:namedview>
  <g
     id="g4135">
    <path
       sodipodi:nodetypes="ccccsssc"
       style="color:#000000;opacity:1;fill:#dc322f;fill-opacity:1"
       d="M 24,12 4,32 24,52 56.142428,52 C 58.263072,51.9116 60,50.03292 60,48 l 0,-32 c 0,-2.12316 -1.382,-4 -4.034316,-4 z"
       id="path4165"
       inkscape:connector-curvature="0" />
    <path
       inkscape:connector-curvature="0"
       id="path4169"
       d="m 28.012576,20 3.997904,0 c 0.04158,-4.8e-4 0.08316,-0.0018 0.12514,0 1.019266,0.0448 2.038412,0.51432 2.748558,1.25 l 5.122114,5.125 5.247252,-5.125 C 46.31546,20.328 47.039284,20.028 48.002096,20 L 52,20 l 0,4 c 0,1.14588 -0.13712,2.2026 -0.999476,3 l -5.122312,5.125 4.99738,5 C 51.627956,37.87768 51.99996,38.9388 52,40 l 0,4 -3.997904,0 c -1.060644,-4e-5 -2.121248,-0.3724 -2.873492,-1.125 L 40.006288,37.75 34.883974,42.875 C 34.131728,43.62776 33.071084,44 32.01048,44 l -3.997904,0 0,-4 c 0,-1.06116 0.372204,-2.12232 1.12441,-2.875 l 5.122314,-5 L 29.136986,27 c -0.842518,-0.77852 -1.212004,-1.877 -1.12441,-3 l 0,-4 z"
       style="color:#000000;fill:#ffffff;fill-opacity:1" />
    <path
       style="color:#000000;fill:#dc322f;fill-opacity:0.10196078"
       d="m 28.012576,20 3.997904,0 c 0.04158,-4.8e-4 0.08316,-0.0018 0.12514,0 1.019266,0.0448 2.038412,0.51432 2.748558,1.25 l 5.122114,5.125 5.247252,-5.125 C 46.31546,20.328 47.039284,20.028 48.002096,20 L 52,20 l 0,4 c 0,1.14588 -0.13712,2.2026 -0.999476,3 l -5.122312,5.125 4.99738,5 C 51.627956,37.87768 51.99996,38.9388 52,40 l 0,4 -3.997904,0 c -1.060644,-4e-5 -2.121248,-0.3724 -2.873492,-1.125 L 40.006288,37.75 34.883974,42.875 C 34.131728,43.62776 33.071084,44 32.01048,44 l -3.997904,0 0,-4 c 0,-1.06116 0.372204,-2.12232 1.12441,-2.875 l 5.122314,-5 L 29.136986,27 c -0.842518,-0.77852 -1.212004,-1.877 -1.12441,-3 l 0,-4 z"
       id="path6"
       inkscape:connector-curvature="0" />
  </g>
</svg>

<svg xmlns="http://www.w3.org/2000/svg" viewBox="0 0 64 64">
 <g>
  <path d="m 24 12 -20 20 20 20 32.14 0 c 2.121 -0.088 3.858 -1.967 3.858 -4 l 0 -32 c 0 -2.123 -1.382 -4 -4.03 -4 z" style="fill:#dc322f;opacity:1;fill-opacity:1;color:#000"/>
  <path d="m 28.01 20 3.998 0 c 0.042 0 0.083 -0.002 0.125 0 1.019 0.045 2.038 0.514 2.749 1.25 l 5.122 5.125 5.247 -5.125 c 1.062 -0.922 1.786 -1.222 2.749 -1.25 l 3.998 0 l 0 4 c 0 1.146 -0.137 2.203 -0.999 3 l -5.122 5.125 4.997 5 c 0.752 0.753 1.124 1.814 1.124 2.875 l 0 4 -3.998 0 c -1.061 0 -2.121 -0.372 -2.873 -1.125 l -5.122 -5.125 -5.122 5.125 c -0.752 0.753 -1.813 1.125 -2.873 1.125 l -3.998 0 0 -4 c 0 -1.061 0.372 -2.122 1.124 -2.875 l 5.122 -5 l -5.122 -5.125 c -0.843 -0.779 -1.212 -1.877 -1.124 -3 l 0 -4 z" style="fill:#fff;fill-opacity:1;color:#000"/>
  <path d="m 28.01 20 3.998 0 c 0.042 0 0.083 -0.002 0.125 0 1.019 0.045 2.038 0.514 2.749 1.25 l 5.122 5.125 5.247 -5.125 c 1.062 -0.922 1.786 -1.222 2.749 -1.25 l 3.998 0 l 0 4 c 0 1.146 -0.137 2.203 -0.999 3 l -5.122 5.125 4.997 5 c 0.752 0.753 1.124 1.814 1.124 2.875 l 0 4 -3.998 0 c -1.061 0 -2.121 -0.372 -2.873 -1.125 l -5.122 -5.125 -5.122 5.125 c -0.752 0.753 -1.813 1.125 -2.873 1.125 l -3.998 0 0 -4 c 0 -1.061 0.372 -2.122 1.124 -2.875 l 5.122 -5 l -5.122 -5.125 c -0.843 -0.779 -1.212 -1.877 -1.124 -3 l 0 -4 z" style="fill:#dc322f;fill-opacity:0.102;color:#000"/>
 </g>
</svg>
